X:720
M:C|
L:1/8
K:C
f|ecdB c2Gc|EcGc Bddf|eccB cGAF|E/F/G Gg ecc:|
e/f/|gcec GcEc|Gcec defa|gcec gcac|fdBg ecce/f/|gcac gcec|

